kora/status/scalable/weather-showers-scattered-night.svg

<svg xmlns="http://www.w3.org/2000/svg" width="48" height="48" version="1">
 <circle style="opacity:0.2" cx="23" cy="25" r="20"/>
 <circle style="fill:#583996" cx="23" cy="24" r="20"/>
 <path style="opacity:0.1;fill:#ffffff" d="M 23,4 A 20,20 0 0 0 3,24 20,20 0 0 0 3.0351562,24.5 20,20 0 0 1 23,5 20,20 0 0 1 42.982422,24.25 20,20 0 0 0 43,24 20,20 0 0 0 23,4 Z"/>
 <path style="opacity:0.2" d="M 33.444462,5.0017263 C 32.405781,5.0531746 31.798841,6.195477 32.337537,7.085034 33.246331,8.586316 33.9998,10.306803 34,12.061725 34,17.385486 29.441753,21.996854 24.118754,22 22.952928,21.9909 21.797089,21.44491 20.710355,21.02263 19.489862,20.549069 18.361704,21.88936 19.036556,23.011161 21.266571,26.71839 25.278846,28.991638 29.605096,29 h 0.0018 c 6.810166,0 12.360363,-5.550196 12.360363,-12.360363 -0.0014,-5.125628 -3.175776,-9.7282863 -7.966641,-11.5502866 -0.177342,-0.067296 -0.366701,-0.097131 -0.556144,-0.087624 z"/>
 <path style="fill:#ffcc42" d="M 33.444462,4.0017263 C 32.405781,4.0531746 31.798841,5.195477 32.337537,6.0850337 33.246331,7.586316 33.9998,9.306803 34,11.061725 34,16.385486 29.441753,20.996854 24.118754,21 22.952928,20.9909 21.797089,20.44491 20.710355,20.02263 19.489862,19.549069 18.361704,20.88936 19.036556,22.011161 21.266571,25.71839 25.278846,27.991638 29.605096,28 h 0.0018 c 6.810166,0 12.360363,-5.550196 12.360363,-12.360363 -0.0014,-5.125628 -3.175776,-9.7282863 -7.966641,-11.5502866 -0.177342,-0.067296 -0.366701,-0.097131 -0.556144,-0.087624 z"/>
 <path style="opacity:0.2;fill:#ffffff" d="M 33.445312,4.0019531 C 32.487617,4.04939 31.8984,5.0240398 32.234375,5.8730469 32.421232,5.3988106 32.866014,5.0306471 33.445312,5.0019531 33.634756,4.9924461 33.822658,5.0225477 34,5.0898438 c 4.629448,1.7606121 7.748824,6.1168012 7.955078,11.0332032 0.0063,-0.160904 0.01172,-0.321981 0.01172,-0.484375 C 41.965397,10.513044 38.790865,5.911844 34,4.0898438 33.822658,4.0225478 33.634756,3.9924461 33.445312,4.0019531 Z m 0.53711,7.6093749 C 33.682316,16.698815 29.257981,20.996963 24.119141,21 c -1.165826,-0.0091 -2.32147,-0.554282 -3.408203,-0.976562 -1.145615,-0.444508 -2.209177,0.708335 -1.777344,1.779296 0.259637,-0.646133 0.999094,-1.081263 1.777344,-0.779296 C 21.797671,21.445718 22.953315,21.9909 24.119141,22 29.44214,21.996854 34,17.386261 34,12.0625 c -1.7e-5,-0.150392 -0.0069,-0.301402 -0.01758,-0.451172 z"/>
 <circle style="opacity:0.2" cx="23" cy="21" r="8"/>
 <path style="opacity:0.1" d="M 23,13.000001 A 8,8 0 0 0 15,21 8,8 0 0 0 15.01172,21.355469 6,6 0 0 0 13,21 6,6 0 0 0 7,27 6,6 0 0 0 13,33 H 33 A 6,6 0 0 0 39,27 6,6 0 0 0 33,21 6,6 0 0 0 30.982422,21.355469 8,8 0 0 0 31,21 8,8 0 0 0 23,13.000001 Z"/>
 <circle style="fill:#6f74ac" cx="13" cy="26" r="6"/>
 <circle style="fill:#6f74ac" cx="23" cy="20" r="8"/>
 <circle style="fill:#6f74ac" cx="33" cy="26" r="6"/>
 <rect style="fill:#6f74ac" width="20" height="8" x="13" y="24"/>
 <path style="opacity:0.2" d="m 12.998047,34 c -0.226097,0.364403 -1.661952,2.70901 -1.996094,3.976562 -0.03016,0.491461 0.20059,1.036469 0.597656,1.429688 0.387182,0.38343 0.891082,0.582252 1.398438,0.59375 z M 13,34 c 4.69e-4,7.55e-4 0.0015,0.0031 0.002,0.0039 V 34 Z m 0.002,0.0039 V 40 c 0.507355,-0.0115 1.011255,-0.21032 1.398438,-0.59375 0.397017,-0.393219 0.627821,-0.938227 0.597656,-1.429688 C 14.664644,36.711637 13.232622,34.375727 13.002,34.003906 Z M 22.998047,34 c -0.226097,0.364403 -1.661952,2.70901 -1.996094,3.976562 -0.03016,0.491461 0.20059,1.036469 0.597656,1.429688 0.387182,0.38343 0.891082,0.582252 1.398438,0.59375 z M 23,34 c 4.69e-4,7.55e-4 0.0015,0.0031 0.002,0.0039 V 34 Z m 0.002,0.0039 V 40 c 0.507355,-0.0115 1.011255,-0.21032 1.398438,-0.59375 0.397017,-0.393219 0.627821,-0.938227 0.597656,-1.429688 C 24.664644,36.711637 23.232622,34.375727 23.002,34.003906 Z M 31.998047,34 c -0.226097,0.364403 -1.661952,2.70901 -1.996094,3.976562 -0.03016,0.491461 0.20059,1.036469 0.597656,1.429688 0.387182,0.38343 0.891082,0.582252 1.398438,0.59375 z M 32,34 c 4.69e-4,7.55e-4 0.0015,0.0031 0.002,0.0039 V 34 Z m 0.002,0.0039 V 40 c 0.507355,-0.0115 1.011255,-0.21032 1.398438,-0.59375 0.397017,-0.393219 0.627821,-0.938227 0.597656,-1.429688 -0.33345,-1.264925 -1.765472,-3.600835 -1.996094,-3.972656 z"/>
 <path style="fill:#7df5ff" d="m 31.999023,33 c -0.226097,0.364403 -1.662243,2.708066 -1.996385,3.975618 -0.03016,0.49146 0.200093,1.038082 0.597159,1.431301 0.387182,0.38343 0.89187,0.581583 1.399226,0.593081 z m 0.002,0 v 6 c 0.507355,-0.0115 1.012043,-0.209651 1.399226,-0.593081 C 33.797266,38.0137 34.027525,37.467078 33.99736,36.975618 33.663218,35.708066 32.227071,33.364403 32.000975,33 Z"/>
 <path style="fill:#7df5ff" d="m 12.999023,33 c -0.226097,0.364403 -1.662243,2.708066 -1.996385,3.975618 -0.03016,0.49146 0.200093,1.038082 0.597159,1.431301 0.387182,0.38343 0.89187,0.581583 1.399226,0.593081 z m 0.002,0 v 6 c 0.507355,-0.0115 1.012043,-0.209651 1.399226,-0.593081 C 14.797266,38.0137 15.027525,37.467078 14.99736,36.975618 14.663218,35.708066 13.227071,33.364403 13.000975,33 Z"/>
 <path style="fill:#7df5ff" d="m 22.999023,33 c -0.226097,0.364403 -1.662243,2.708066 -1.996385,3.975618 -0.03016,0.49146 0.200093,1.038082 0.597159,1.431301 0.387182,0.38343 0.89187,0.581583 1.399226,0.593081 z m 0.002,0 v 6 c 0.507355,-0.0115 1.012043,-0.209651 1.399226,-0.593081 C 24.797266,38.0137 25.027525,37.467078 24.99736,36.975618 24.663218,35.708066 23.227071,33.364403 23.000975,33 Z"/>
 <path style="opacity:0.1;fill:#ffffff" d="m 23,12 a 8,8 0 0 0 -8,8 8,8 0 0 0 0.02539,0.353516 A 6,6 0 0 0 13,20 6,6 0 0 0 7,26 6,6 0 0 0 7.0566406,26.5 6,6 0 0 1 13,21 6,6 0 0 1 15.025391,21.353516 8,8 0 0 1 15,21 8,8 0 0 1 23,13 8,8 0 0 1 30.972656,20.369141 8,8 0 0 0 31,20 8,8 0 0 0 23,12 Z m 7.972656,8.369141 A 8,8 0 0 1 31,21 8,8 0 0 1 30.972656,21.369141 6,6 0 0 1 33,21 6,6 0 0 1 38.960938,26.351562 6,6 0 0 0 39,26 6,6 0 0 0 33,20 6,6 0 0 0 30.972656,20.369141 Z"/>
</svg>

<svg clip-rule="evenodd" fill-rule="evenodd" stroke-linejoin="round" stroke-miterlimit="2" viewBox="0 0 48 48" xmlns="http://www.w3.org/2000/svg">
 <circle cx="23" cy="24" r="20" fill="#583996"/>
 <path d="m33.444 4.002c-1.038.051-1.645 1.193-1.106 2.083.908 1.501 1.662 3.222 1.662 4.977 0 5.323-4.558 9.935-9.881 9.938-1.166-.009-2.322-.555-3.409-.977-1.22-.474-2.348.866-1.673 1.988 2.23 3.707 6.242 5.981 10.568 5.989h.002c6.81 0 12.36-5.55 12.36-12.36-.001-5.126-3.176-9.729-7.966-11.551-.178-.067-.367-.097-.557-.087z" fill="#ffcc42" fill-rule="nonzero"/>
 <g fill="#6f74ac">
  <circle cx="13" cy="26" r="6"/>
  <circle cx="23" cy="20" r="8"/>
  <circle cx="33" cy="26" r="6"/>
  <path d="m13 24h20v8h-20z"/>
 </g>
 <path d="m31.999 33c-.226.364-1.662 2.708-1.996 3.976-.031.491.2 1.038.597 1.431.387.383.892.582 1.399.593zm.002 0v6c.507-.011 1.012-.21 1.399-.593.397-.393.628-.94.597-1.431-.334-1.268-1.77-3.612-1.996-3.976z" fill="#7df5ff" fill-rule="nonzero"/>
 <path d="m12.999 33c-.226.364-1.662 2.708-1.996 3.976-.031.491.2 1.038.597 1.431.387.383.892.582 1.399.593zm.002 0v6c.507-.011 1.012-.21 1.399-.593.397-.393.628-.94.597-1.431-.334-1.268-1.77-3.612-1.996-3.976z" fill="#7df5ff" fill-rule="nonzero"/>
 <path d="m22.999 33c-.226.364-1.662 2.708-1.996 3.976-.031.491.2 1.038.597 1.431.387.383.892.582 1.399.593zm.002 0v6c.507-.011 1.012-.21 1.399-.593.397-.393.628-.94.597-1.431-.334-1.268-1.77-3.612-1.996-3.976z" fill="#7df5ff" fill-rule="nonzero"/>
</svg>
